Newaita-dark/.places-retrowave/24/folder-megasync.svg

<?xml version="1.0" encoding="UTF-8"?>
<svg xmlns="http://www.w3.org/2000/svg" xmlns:xlink="http://www.w3.org/1999/xlink" width="24pt" height="24pt" viewBox="0 0 24 24" version="1.1">
<defs>
<linearGradient id="linear0" gradientUnits="userSpaceOnUse" x1="254" y1="233.5" x2="254" y2="254.666672" gradientTransform="matrix(0.0468795,0,0,0.0468795,-0.0000028613,10.079089)">
<stop offset="0" style="stop-color:rgb(0%,0%,0%);stop-opacity:0.27451;"/>
<stop offset="1" style="stop-color:rgb(0%,0%,0%);stop-opacity:0;"/>
</linearGradient>
<radialGradient id="radial0" gradientUnits="userSpaceOnUse" cx="450.908936" cy="189.579361" fx="450.908936" fy="189.579361" r="21.166656" gradientTransform="matrix(0.000000130628,-0.0585994,-0.105479,-0.0000000761539,40.58641,47.696499)">
<stop offset="0" style="stop-color:rgb(0%,0%,0%);stop-opacity:0.313725;"/>
<stop offset="0.222222" style="stop-color:rgb(0%,0%,0%);stop-opacity:0.27451;"/>
<stop offset="1" style="stop-color:rgb(0%,0%,0%);stop-opacity:0;"/>
</radialGradient>
<radialGradient id="radial1" gradientUnits="userSpaceOnUse" cx="450.908936" cy="189.579361" fx="450.908936" fy="189.579361" r="21.166656" gradientTransform="matrix(-0.000000130628,0.0585994,0.105479,0.0000000761539,-16.771633,-5.645609)">
<stop offset="0" style="stop-color:rgb(0%,0%,0%);stop-opacity:0.313725;"/>
<stop offset="0.222222" style="stop-color:rgb(0%,0%,0%);stop-opacity:0.27451;"/>
<stop offset="1" style="stop-color:rgb(0%,0%,0%);stop-opacity:0;"/>
</radialGradient>
<radialGradient id="radial2" gradientUnits="userSpaceOnUse" cx="450.908936" cy="189.579361" fx="450.908936" fy="189.579361" r="21.166656" gradientTransform="matrix(-0.000000130628,-0.0585994,0.105479,-0.0000000761539,-16.771633,47.696499)">
<stop offset="0" style="stop-color:rgb(0%,0%,0%);stop-opacity:0.313725;"/>
<stop offset="0.222222" style="stop-color:rgb(0%,0%,0%);stop-opacity:0.27451;"/>
<stop offset="1" style="stop-color:rgb(0%,0%,0%);stop-opacity:0;"/>
</radialGradient>
<radialGradient id="radial3" gradientUnits="userSpaceOnUse" cx="450.908936" cy="189.579361" fx="450.908936" fy="189.579361" r="21.166656" gradientTransform="matrix(0.000000130628,0.0585994,-0.105479,0.0000000761539,40.586408,-5.64561)">
<stop offset="0" style="stop-color:rgb(0%,0%,0%);stop-opacity:0.313725;"/>
<stop offset="0.222222" style="stop-color:rgb(0%,0%,0%);stop-opacity:0.27451;"/>
<stop offset="1" style="stop-color:rgb(0%,0%,0%);stop-opacity:0;"/>
</radialGradient>
<linearGradient id="linear1" gradientUnits="userSpaceOnUse" x1="359.833344" y1="-147.5" x2="359.833344" y2="-62.833332" gradientTransform="matrix(0.0468795,0,0,0.0468795,0,10.079087)">
<stop offset="0" style="stop-color:rgb(39.215686%,70.980392%,96.470588%);stop-opacity:1;"/>
<stop offset="1" style="stop-color:rgb(73.333333%,87.058824%,98.431373%);stop-opacity:1;"/>
</linearGradient>
<linearGradient id="linear2" gradientUnits="userSpaceOnUse" x1="254" y1="-105.166656" x2="254" y2="95.916672" gradientTransform="matrix(0.0468795,0,0,0.0468795,0,10.079087)">
<stop offset="0" style="stop-color:rgb(39.215686%,70.980392%,96.470588%);stop-opacity:1;"/>
<stop offset="1" style="stop-color:rgb(98.823529%,89.411765%,92.54902%);stop-opacity:1;"/>
</linearGradient>
<linearGradient id="linear3" gradientUnits="userSpaceOnUse" x1="880" y1="1695.118164" x2="880" y2="1095.118164" gradientTransform="matrix(0.0124035,0,0,0.0124035,0,0)">
<stop offset="0" style="stop-color:rgb(14.901961%,19.607843%,21.960784%);stop-opacity:1;"/>
<stop offset="0.666667" style="stop-color:rgb(27.058824%,35.294118%,39.215686%);stop-opacity:1;"/>
<stop offset="1" style="stop-color:rgb(38.039216%,38.039216%,38.039216%);stop-opacity:1;"/>
</linearGradient>
<linearGradient id="linear4" gradientUnits="userSpaceOnUse" x1="254" y1="159.416672" x2="254" y2="-4.625" gradientTransform="matrix(1,0,0,1,-0.00000333333,0.00000333333)">
<stop offset="0" style="stop-color:rgb(69.019608%,74.509804%,77.254902%);stop-opacity:1;"/>
<stop offset="0.375" style="stop-color:rgb(77.254902%,79.215686%,91.372549%);stop-opacity:1;"/>
<stop offset="1" style="stop-color:rgb(32.941176%,43.137255%,47.843137%);stop-opacity:1;"/>
</linearGradient>
</defs>
<g id="surface1">
<path style=" stroke:none;fill-rule:nonzero;fill:url(#linear0);" d="M 2.976562 21.027344 L 20.839844 21.027344 L 20.839844 22.019531 L 2.976562 22.019531 Z M 2.976562 21.027344 "/>
<path style=" stroke:none;fill-rule:nonzero;fill:url(#radial0);" d="M 20.839844 21.027344 L 22.824219 21.027344 L 22.824219 20.03125 L 20.839844 20.03125 Z M 20.839844 21.027344 "/>
<path style=" stroke:none;fill-rule:nonzero;fill:url(#radial1);" d="M 2.976562 21.027344 L 0.992188 21.027344 L 0.992188 22.019531 L 2.976562 22.019531 Z M 2.976562 21.027344 "/>
<path style=" stroke:none;fill-rule:nonzero;fill:url(#radial2);" d="M 2.976562 21.027344 L 0.992188 21.027344 L 0.992188 20.03125 L 2.976562 20.03125 Z M 2.976562 21.027344 "/>
<path style=" stroke:none;fill-rule:nonzero;fill:url(#radial3);" d="M 20.839844 21.027344 L 22.824219 21.027344 L 22.824219 22.019531 L 20.839844 22.019531 Z M 20.839844 21.027344 "/>
<path style=" stroke:none;fill-rule:nonzero;fill:url(#linear1);" d="M 5.457031 3.164062 L 21.582031 3.164062 C 22.128906 3.164062 22.574219 3.609375 22.574219 4.15625 L 22.574219 7.878906 C 22.574219 8.425781 22.128906 8.871094 21.582031 8.871094 L 5.457031 8.871094 C 4.910156 8.871094 4.464844 8.425781 4.464844 7.878906 L 4.464844 4.15625 C 4.464844 3.609375 4.910156 3.164062 5.457031 3.164062 Z M 5.457031 3.164062 "/>
<path style=" stroke:none;fill-rule:nonzero;fill:rgb(90.196079%,90.196079%,90.196079%);fill-opacity:0.588235;" d="M 5.457031 3.164062 C 4.90625 3.164062 4.464844 3.605469 4.464844 4.15625 L 4.464844 4.28125 C 4.464844 3.730469 4.90625 3.289062 5.457031 3.289062 L 21.582031 3.289062 C 22.132812 3.289062 22.574219 3.730469 22.574219 4.28125 L 22.574219 4.15625 C 22.574219 3.605469 22.132812 3.164062 21.582031 3.164062 Z M 5.457031 3.164062 "/>
<path style=" stroke:none;fill-rule:nonzero;fill:rgb(12.941177%,12.941177%,12.941177%);fill-opacity:1;" d="M 5.457031 3.09375 C 4.871094 3.09375 4.394531 3.570312 4.394531 4.15625 L 4.394531 7.878906 C 4.394531 8.464844 4.871094 8.941406 5.457031 8.941406 L 21.582031 8.941406 C 22.167969 8.941406 22.644531 8.464844 22.644531 7.878906 L 22.644531 4.15625 C 22.644531 3.570312 22.167969 3.09375 21.582031 3.09375 Z M 5.457031 3.234375 L 21.582031 3.234375 C 22.09375 3.234375 22.503906 3.644531 22.503906 4.15625 L 22.503906 7.878906 C 22.503906 8.390625 22.09375 8.800781 21.582031 8.800781 L 5.457031 8.800781 C 4.945312 8.800781 4.535156 8.390625 4.535156 7.878906 L 4.535156 4.15625 C 4.535156 3.644531 4.945312 3.234375 5.457031 3.234375 Z M 5.457031 3.234375 "/>
<path style=" stroke:none;fill-rule:nonzero;fill:url(#linear2);" d="M 1.984375 5.148438 C 1.433594 5.148438 0.992188 5.589844 0.992188 6.140625 L 0.992188 20.03125 C 0.992188 20.582031 1.433594 21.027344 1.984375 21.027344 L 21.832031 21.027344 C 22.378906 21.027344 22.824219 20.582031 22.824219 20.03125 L 22.824219 7.628906 L 9.425781 7.628906 C 8.878906 7.628906 8.433594 7.1875 8.433594 6.636719 L 8.433594 5.148438 Z M 1.984375 5.148438 "/>
<path style=" stroke:none;fill-rule:nonzero;fill:url(#linear3);" d="M 0.992188 13.582031 L 0.992188 20.03125 C 0.992188 20.582031 1.433594 21.027344 1.984375 21.027344 L 21.832031 21.027344 C 22.378906 21.027344 22.824219 20.582031 22.824219 20.03125 L 22.824219 13.582031 C 21.984375 13.667969 21.832031 14.078125 20.09375 13.582031 C 19.660156 13.398438 18.542969 13.460938 17.363281 13.582031 C 16.371094 13.582031 15.378906 13.085938 14.636719 13.582031 C 14.386719 13.707031 13.917969 13.75 13.308594 13.746094 C 11.660156 14.078125 10.171875 14.078125 8.695312 13.511719 C 7.9375 13.335938 7.105469 13.5 6.449219 13.582031 C 4.714844 13.832031 4.464844 14.078125 3.722656 13.582031 C 2.976562 13.335938 2.234375 13.832031 0.992188 13.582031 Z M 0.992188 13.582031 "/>
<path style=" stroke:none;fill-rule:nonzero;fill:rgb(0%,0%,0%);fill-opacity:0.196078;" d="M 1.984375 21.027344 C 1.433594 21.027344 0.992188 20.582031 0.992188 20.03125 L 0.992188 19.910156 C 0.992188 20.457031 1.433594 20.902344 1.984375 20.902344 L 21.832031 20.902344 C 22.378906 20.902344 22.824219 20.457031 22.824219 19.910156 L 22.824219 20.03125 C 22.824219 20.582031 22.378906 21.027344 21.832031 21.027344 Z M 1.984375 21.027344 "/>
<path style=" stroke:none;fill-rule:nonzero;fill:rgb(90.196079%,90.196079%,90.196079%);fill-opacity:0.937255;" d="M 1.984375 5.148438 C 1.433594 5.148438 0.992188 5.589844 0.992188 6.140625 L 0.992188 6.265625 C 0.992188 5.714844 1.433594 5.273438 1.984375 5.273438 L 8.433594 5.273438 L 8.433594 5.148438 Z M 1.984375 5.148438 "/>
<path style=" stroke:none;fill-rule:nonzero;fill:rgb(90.196079%,90.196079%,90.196079%);fill-opacity:0.937255;" d="M 9.363281 7.691406 C 8.816406 7.691406 8.371094 7.25 8.371094 6.699219 L 8.371094 6.574219 C 8.371094 7.125 8.816406 7.570312 9.363281 7.566406 L 22.824219 7.566406 L 22.824219 7.691406 Z M 9.363281 7.691406 "/>
<path style=" stroke:none;fill-rule:nonzero;fill:rgb(12.941177%,12.941177%,12.941177%);fill-opacity:1;" d="M 1.984375 5.078125 C 1.398438 5.078125 0.921875 5.554688 0.921875 6.140625 L 0.921875 20.03125 C 0.921875 20.621094 1.398438 21.097656 1.984375 21.097656 L 21.832031 21.097656 C 22.417969 21.097656 22.894531 20.621094 22.894531 20.03125 L 22.894531 7.488281 L 9.425781 7.488281 C 8.914062 7.488281 8.503906 7.078125 8.503906 6.566406 L 8.503906 5.078125 Z M 1.984375 5.21875 L 8.363281 5.21875 L 8.363281 6.566406 C 8.363281 7.15625 8.839844 7.628906 9.425781 7.628906 L 22.753906 7.628906 L 22.753906 20.03125 C 22.753906 20.546875 22.34375 20.957031 21.832031 20.957031 L 1.984375 20.957031 C 1.472656 20.957031 1.0625 20.546875 1.0625 20.03125 L 1.0625 6.140625 C 1.0625 5.628906 1.472656 5.21875 1.984375 5.21875 Z M 1.984375 5.21875 "/>
<path style="fill-rule:nonzero;fill:url(#linear4);stroke-width:3;stroke-linecap:round;stroke-linejoin:miter;stroke:rgb(12.941177%,12.941177%,12.941177%);stroke-opacity:1;stroke-miterlimit:4;" d="M 195.897959 -4.020148 C 191.898341 -4.103473 187.982049 -2.686942 184.982335 0.312772 L 184.149081 1.229351 C 180.732741 4.645692 179.316209 9.311913 179.899487 13.894808 L 179.899487 139.049523 C 179.899487 147.798688 186.982144 154.881345 195.814634 154.881345 C 204.563798 154.881345 211.646455 147.798688 211.646455 139.049523 L 211.646455 50.307998 L 242.56017 81.221712 C 245.643209 84.304751 249.642827 85.887933 253.55912 85.971259 C 253.72577 85.971259 253.892421 85.971259 253.975747 85.971259 C 254.142397 85.971259 254.309048 85.971259 254.392373 85.971259 C 258.391991 85.887933 262.308284 84.304751 265.474648 81.221712 L 296.305038 50.307998 L 296.305038 139.049523 C 296.305038 147.798688 303.387695 154.881345 312.220184 154.881345 C 320.969349 154.881345 328.052006 147.798688 328.052006 139.049523 L 328.052006 13.894808 C 328.718609 9.311913 327.302078 4.645692 323.885737 1.229351 L 322.969158 0.312772 C 317.053056 -5.686655 307.220662 -5.436679 300.971259 0.729399 L 253.975747 47.724911 L 206.980234 0.729399 C 203.897195 -2.35364 199.897577 -3.936822 195.897959 -4.020148 Z M 195.897959 -4.020148 " transform="matrix(0.0468795,0,0,0.0468795,0,10.079087)"/>
<path style=" stroke:none;fill-rule:nonzero;fill:rgb(25.882354%,25.882354%,25.882354%);fill-opacity:0.313725;" d="M 15.378906 13.363281 C 15.113281 13.371094 14.863281 13.433594 14.636719 13.582031 C 14.476562 13.664062 14.21875 13.710938 13.890625 13.730469 L 13.890625 16.597656 C 13.890625 17.007812 14.222656 17.339844 14.636719 17.339844 C 15.046875 17.339844 15.378906 17.007812 15.378906 16.597656 Z M 8.433594 13.464844 L 8.433594 16.597656 C 8.433594 17.007812 8.765625 17.339844 9.179688 17.339844 C 9.589844 17.339844 9.921875 17.007812 9.921875 16.597656 L 9.921875 13.859375 C 9.511719 13.78125 9.101562 13.667969 8.695312 13.511719 C 8.609375 13.492188 8.523438 13.476562 8.433594 13.464844 Z M 12.4375 13.890625 C 12.109375 13.933594 11.789062 13.960938 11.46875 13.96875 C 11.597656 14.058594 11.742188 14.105469 11.886719 14.109375 C 11.894531 14.109375 11.902344 14.109375 11.90625 14.109375 C 11.914062 14.109375 11.921875 14.109375 11.925781 14.109375 C 12.109375 14.105469 12.292969 14.03125 12.4375 13.890625 Z M 12.4375 13.890625 "/>
</g>
</svg>

<svg xmlns="http://www.w3.org/2000/svg" width="32" height="32" viewBox="0 0 24 24"><defs><linearGradient id="a" gradientUnits="userSpaceOnUse" x1="254" y1="233.5" x2="254" y2="254.667" gradientTransform="matrix(.04688 0 0 .04688 0 10.08)"><stop offset="0" stop-opacity=".275"/><stop offset="1" stop-opacity="0"/></linearGradient><radialGradient id="b" gradientUnits="userSpaceOnUse" cx="450.909" cy="189.579" fx="450.909" fy="189.579" r="21.167" gradientTransform="matrix(0 -.0586 -.10548 0 40.586 47.696)"><stop offset="0" stop-opacity=".314"/><stop offset=".222" stop-opacity=".275"/><stop offset="1" stop-opacity="0"/></radialGradient><radialGradient id="c" gradientUnits="userSpaceOnUse" cx="450.909" cy="189.579" fx="450.909" fy="189.579" r="21.167" gradientTransform="matrix(0 .0586 .10548 0 -16.772 -5.646)"><stop offset="0" stop-opacity=".314"/><stop offset=".222" stop-opacity=".275"/><stop offset="1" stop-opacity="0"/></radialGradient><radialGradient id="d" gradientUnits="userSpaceOnUse" cx="450.909" cy="189.579" fx="450.909" fy="189.579" r="21.167" gradientTransform="matrix(0 -.0586 .10548 0 -16.772 47.696)"><stop offset="0" stop-opacity=".314"/><stop offset=".222" stop-opacity=".275"/><stop offset="1" stop-opacity="0"/></radialGradient><radialGradient id="e" gradientUnits="userSpaceOnUse" cx="450.909" cy="189.579" fx="450.909" fy="189.579" r="21.167" gradientTransform="matrix(0 .0586 -.10548 0 40.586 -5.646)"><stop offset="0" stop-opacity=".314"/><stop offset=".222" stop-opacity=".275"/><stop offset="1" stop-opacity="0"/></radialGradient><linearGradient id="f" gradientUnits="userSpaceOnUse" x1="359.833" y1="-147.5" x2="359.833" y2="-62.833" gradientTransform="matrix(.04688 0 0 .04688 0 10.08)"><stop offset="0" stop-color="#64b5f6"/><stop offset="1" stop-color="#bbdefb"/></linearGradient><linearGradient id="g" gradientUnits="userSpaceOnUse" x1="254" y1="-105.167" x2="254" y2="95.917" gradientTransform="matrix(.04688 0 0 .04688 0 10.08)"><stop offset="0" stop-color="#64b5f6"/><stop offset="1" stop-color="#fce4ec"/></linearGradient><linearGradient id="h" gradientUnits="userSpaceOnUse" x1="880" y1="1695.118" x2="880" y2="1095.118" gradientTransform="scale(.0124)"><stop offset="0" stop-color="#263238"/><stop offset=".667" stop-color="#455a64"/><stop offset="1" stop-color="#616161"/></linearGradient><linearGradient id="i" gradientUnits="userSpaceOnUse" x1="254" y1="159.417" x2="254" y2="-4.625"><stop offset="0" stop-color="#b0bec5"/><stop offset=".375" stop-color="#c5cae9"/><stop offset="1" stop-color="#546e7a"/></linearGradient></defs><path d="M2.977 21.027H20.84v.993H2.977zm0 0" fill="url(#a)"/><path d="M20.84 21.027h1.984v-.996H20.84zm0 0" fill="url(#b)"/><path d="M2.977 21.027H.992v.993h1.985zm0 0" fill="url(#c)"/><path d="M2.977 21.027H.992v-.996h1.985zm0 0" fill="url(#d)"/><path d="M20.84 21.027h1.984v.993H20.84zm0 0" fill="url(#e)"/><path d="M5.457 3.164h16.125c.547 0 .992.445.992.992V7.88a.994.994 0 0 1-.992.992H5.457a.994.994 0 0 1-.992-.992V4.156c0-.547.445-.992.992-.992zm0 0" fill="url(#f)"/><path d="M5.457 3.164a.989.989 0 0 0-.992.992v.125c0-.55.441-.992.992-.992h16.125c.55 0 .992.441.992.992v-.125a.989.989 0 0 0-.992-.992zm0 0" fill="#e6e6e6" fill-opacity=".588"/><path d="M5.457 3.094c-.586 0-1.062.476-1.062 1.062V7.88c0 .586.476 1.062 1.062 1.062h16.125c.586 0 1.063-.476 1.063-1.062V4.156c0-.586-.477-1.062-1.063-1.062zm0 .14h16.125c.512 0 .922.41.922.922V7.88c0 .512-.41.922-.922.922H5.457a.919.919 0 0 1-.922-.922V4.156c0-.511.41-.922.922-.922zm0 0" fill="#212121"/><path d="M1.984 5.148a.989.989 0 0 0-.992.993v13.89c0 .551.442.996.992.996h19.848a.994.994 0 0 0 .992-.996V7.63H9.426a.991.991 0 0 1-.992-.992V5.148zm0 0" fill="url(#g)"/><path d="M.992 13.582v6.45c0 .55.442.995.992.995h19.848a.994.994 0 0 0 .992-.996v-6.449c-.84.086-.992.496-2.73 0-.434-.184-1.551-.121-2.73 0-.993 0-1.985-.496-2.727 0-.25.125-.719.168-1.328.164-1.649.332-3.137.332-4.614-.234-.758-.176-1.59-.012-2.246.07-1.734.25-1.984.496-2.726 0-.746-.246-1.489.25-2.73 0zm0 0" fill="url(#h)"/><path d="M1.984 21.027a.992.992 0 0 1-.992-.996v-.12c0 .546.442.991.992.991h19.848a.994.994 0 0 0 .992-.992v.121c0 .551-.445.996-.992.996zm0 0" fill-opacity=".196"/><path d="M1.984 5.148a.989.989 0 0 0-.992.993v.125c0-.551.442-.993.992-.993h6.45v-.125zm0 0M9.363 7.691a.991.991 0 0 1-.992-.992v-.125c0 .551.445.996.992.992h13.461v.125zm0 0" fill="#e6e6e6" fill-opacity=".937"/><path d="M1.984 5.078c-.586 0-1.062.477-1.062 1.063v13.89c0 .59.476 1.067 1.062 1.067h19.848c.586 0 1.063-.477 1.063-1.067V7.488H9.425a.919.919 0 0 1-.921-.922V5.078zm0 .14h6.38v1.348c0 .59.476 1.063 1.062 1.063h13.328V20.03a.92.92 0 0 1-.922.926H1.984a.92.92 0 0 1-.921-.926V6.141c0-.512.41-.922.921-.922zm0 0" fill="#212121"/><path d="M195.898-4.02c-4-.083-7.916 1.333-10.916 4.333l-.833.916c-3.416 3.417-4.833 8.083-4.25 12.666V139.05c0 8.749 7.083 15.831 15.916 15.831 8.749 0 15.831-7.082 15.831-15.831V50.308l30.914 30.914c3.083 3.083 7.083 4.666 11 4.75h.832c4-.084 7.916-1.667 11.083-4.75l30.83-30.914v88.742c0 8.749 7.083 15.831 15.915 15.831 8.75 0 15.832-7.082 15.832-15.831V13.895c.667-4.583-.75-9.25-4.166-12.666l-.917-.916c-5.916-6-15.748-5.75-21.998.416l-46.995 46.996L206.98.729a16.119 16.119 0 0 0-11.082-4.75zm0 0" transform="matrix(.04688 0 0 .04688 0 10.08)" fill="url(#i)" stroke-width="3" stroke-linecap="round" stroke="#212121"/><path d="M15.379 13.363c-.266.008-.516.07-.742.219-.16.082-.418.129-.746.148v2.868c0 .41.332.742.746.742.41 0 .742-.332.742-.742zm-6.945.102v3.133c0 .41.332.742.746.742.41 0 .742-.332.742-.742v-2.739a7.12 7.12 0 0 1-1.227-.347 2.814 2.814 0 0 0-.261-.047zm4.004.426c-.329.043-.649.07-.97.078.13.09.274.136.419.14h.039a.758.758 0 0 0 .511-.218zm0 0" fill="#424242" fill-opacity=".314"/></svg>
